assets/icons/message-check.svg

<svg xmlns="http://www.w3.org/2000/svg" class="icon" viewBox="0 0 512 512">
  <path
    d="M 208.18677042801556 414.38132295719845 Q 207.19066147859922 394.4591439688716 194.24124513618676 380.5136186770428 L 194.24124513618676 380.5136186770428 L 194.24124513618676 380.5136186770428 Q 180.295719844358 367.56420233463035 160.37354085603113 366.568093385214 L 64.74708171206225 366.568093385214 L 64.74708171206225 366.568093385214 Q 49.80544747081712 365.5719844357977 48.809338521400775 350.63035019455253 L 48.809338521400775 63.750972762645915 L 48.809338521400775 63.750972762645915 Q 49.80544747081712 48.809338521400775 64.74708171206225 47.81322957198444 L 447.25291828793775 47.81322957198444 L 447.25291828793775 47.81322957198444 Q 462.1945525291829 48.809338521400775 463.1906614785992 63.750972762645915 L 463.1906614785992 350.63035019455253 L 463.1906614785992 350.63035019455253 Q 462.1945525291829 365.5719844357977 447.25291828793775 366.568093385214 L 308.79377431906613 366.568093385214 L 308.79377431906613 366.568093385214 Q 292.85603112840465 366.568093385214 280.9027237354086 376.52918287937746 L 208.18677042801556 430.3190661478599 L 208.18677042801556 430.3190661478599 L 208.18677042801556 414.38132295719845 L 208.18677042801556 414.38132295719845 Z M 208.18677042801556 490.0856031128405 L 208.18677042801556 490.0856031128405 L 208.18677042801556 490.0856031128405 L 208.18677042801556 490.0856031128405 L 308.79377431906613 414.38132295719845 L 308.79377431906613 414.38132295719845 L 447.25291828793775 414.38132295719845 L 447.25291828793775 414.38132295719845 Q 474.147859922179 413.3852140077821 492.07782101167317 395.45525291828795 Q 510.0077821011673 377.5252918287938 511.00389105058366 350.63035019455253 L 511.00389105058366 63.750972762645915 L 511.00389105058366 63.750972762645915 Q 510.0077821011673 36.856031128404666 492.07782101167317 18.926070038910506 Q 474.147859922179 0.9961089494163424 447.25291828793775 0 L 64.74708171206225 0 L 64.74708171206225 0 Q 37.85214007782101 0.9961089494163424 19.92217898832685 18.926070038910506 Q 1.9922178988326849 36.856031128404666 0.9961089494163424 63.750972762645915 L 0.9961089494163424 350.63035019455253 L 0.9961089494163424 350.63035019455253 Q 1.9922178988326849 377.5252918287938 19.92217898832685 395.45525291828795 Q 37.85214007782101 413.3852140077821 64.74708171206225 414.38132295719845 L 112.56031128404669 414.38132295719845 L 160.37354085603113 414.38132295719845 L 160.37354085603113 462.1945525291829 L 160.37354085603113 462.1945525291829 L 160.37354085603113 466.17898832684824 L 160.37354085603113 466.17898832684824 L 160.37354085603113 466.17898832684824 L 160.37354085603113 466.17898832684824 L 160.37354085603113 473.15175097276267 L 160.37354085603113 473.15175097276267 L 160.37354085603113 494.07003891050584 L 160.37354085603113 494.07003891050584 Q 160.37354085603113 504.0311284046693 169.3385214007782 508.01556420233464 Q 178.30350194552528 512 186.27237354085602 507.0194552529183 L 203.20622568093384 494.07003891050584 L 203.20622568093384 494.07003891050584 L 208.18677042801556 490.0856031128405 L 208.18677042801556 490.0856031128405 Z M 368.5603112840467 152.4046692607004 Q 382.5058365758755 135.47081712062257 368.5603112840467 118.53696498054475 Q 351.6264591439689 104.59143968871595 334.69260700389106 118.53696498054475 L 224.12451361867704 229.10505836575877 L 224.12451361867704 229.10505836575877 L 177.30739299610894 182.28793774319067 L 177.30739299610894 182.28793774319067 Q 160.37354085603113 168.34241245136187 143.4396887159533 182.28793774319067 Q 129.4941634241245 199.22178988326849 143.4396887159533 216.1556420233463 L 207.19066147859922 279.9066147859922 L 207.19066147859922 279.9066147859922 Q 224.12451361867704 293.852140077821 241.05836575875486 279.9066147859922 L 368.5603112840467 152.4046692607004 L 368.5603112840467 152.4046692607004 Z"
  />
</svg>

<svg xmlns="http://www.w3.org/2000/svg" class="icon" viewBox="0 0 512 512">
  <path
    d="M208.187 414.381q-.996-19.922-13.946-33.867-13.945-12.95-33.867-13.946H64.747q-14.942-.996-15.938-15.938V63.751q.996-14.942 15.938-15.938h382.506q14.942.996 15.938 15.938v286.88q-.996 14.941-15.938 15.937h-138.46q-15.937 0-27.89 9.961l-72.716 53.79zm0 75.705 100.607-75.705h138.459q26.895-.996 44.825-18.926t18.926-44.825V63.751q-.996-26.895-18.926-44.825T447.253 0H64.747Q37.852.996 19.922 18.926T.996 63.751v286.88q.996 26.894 18.926 44.824t44.825 18.926h95.627v79.689q0 9.961 8.965 13.946t16.933-.997l16.934-12.949zM368.56 152.405q13.946-16.934 0-33.868-16.934-13.946-33.867 0L224.125 229.105l-46.818-46.817q-16.933-13.946-33.867 0-13.946 16.934 0 33.868l63.75 63.75q16.935 13.946 33.868 0z" />
</svg>
